X: 14501
T: Gan Ainm
R: reel
M: 4/4
K: Gmajor
G2 BG cG BG|Bc cd ef ga|bg g/g/g ag ef|ge dB AG E D|
G2 BG cG BG|Bc cd ef ga|bg g/g/g ag ed|cA FA G4||

